X: 1
T: Winchell's Falls [basic tune]
C: Noah VanNorstrand
S: Audrey Knuth @ Roaring Jelly zoom session 2020-10-13
S: Tunes 'N Stuff with Audrey Knuth
S: https://drive.google.com/drive/folders/1yXGhj24P9IU-sNyqHq_582DajPWJPEqj
N: Simplified to show the basic tune clearly.
R: reel
D: https://www.youtube.com/watch?v=Z3J0DkfXVX0
Z: 2020 John Chambers <jc:trillian.mit.edu>
M: C|
L: 1/8
K: A
z2EF |\
"A"ABcd ecBA | "D"F2A3 BAF | "A"E2A3 BAE | "D"F2A3 BAF |\
"A"E2c2 cBAE | "D"F2A3 BAF | "A"EFAc "E"BAGB | "A"A4 :|
|: ABce |\
"E"B3c B2AB | "A"c2 e6 | "D"fa3 abaf | "A"e2c3 BA2 |\
"E"B3c B2AB | "F#m"c2e2 cBAF | "A"EFAc "E"BAGB | "A"A4 :|


